!!!OTL: DREI GAENS IM HABERSTROH
!!!ARE: Europa, Mitteleuropa, Deutschland
!!!SCT: E1785
!!!YEM: Copyright 1995, estate of Helmut Schaffrath.
**kern
*ICvox
*Ivox
*M4/4
*k[b-]
*F:
{4f
=1
4f
4f
4.f
8g
=2
2a
4r}
{4a
=3
4a
4a
4.a
8b-
=4
2cc
4r}
{4a
=5
4cc
4cc
4.cc
8b-
=6
2a
4f}
{4f
=7
4a
4cc
4.a
8g
=8
2f
4c}
{4cc
=9
4cc
4cc
4cc
4cc
=10
2.cc}
==
!!!AGN: Scherz -, Gesellschafts - Lied
!!!ONB: ESAC (Essen Associative Code) Database: ERK3
!!!AMT: simple quadruple
!!!AIN: vox
!!!EED: Helmut Schaffrath
!!!EEV: 1.0
*-
